X: 202
T: Song of the Grass Dance (b)
C: Teton Sioux band 1911-1914
N: Derived from sioux197.krn
O: South Dakota, U.S.A.
N: Teton Sioux Music by Frances Densmore, 1918
Z: transcribed to **kern format by Craig Sapp
L: 1/8
M: 2/4
Q: 1/4=58
K: G clef=bass
%%linebreak <none>
{/G,}G2G2 | 
G2(3G E E ||  
[M:3/4]D D (3D B, B, E E ||  
[M:2/4]D D E/ D/ B,/ A,/ | 
G, G, (3G, E, E, ||  
[M:3/4]G, A, G,< G, G, G, ||  
[M:2/4]G,4 ||  
[M:3/4]G,4E E | 
D D (3D B, B, E E ||  
[M:2/4]D D E/ D/ B,/ A,/ | 
G, G, (3G, E, E, ||  
[M:3/4]G, A, G,< G, G, G, ||  
[M:2/4]G,4 | 
G,4 |]  



